X:0341
M:2/4
L:1/16
Q:1/4=112
K:D
f2fd g2ge|a2f2 d4  |e2f2g2f2 |efed {d}c2BA|
f2fd g2ge|a2f2d2A2 |Bege d2c2|d2d2    d4 :|
e2ec f2fd|g2e2 e4  |f2fd g2ge|a2f2    f4  |

